assets/icons/qvision/mms.svg

<svg xmlns="http://www.w3.org/2000/svg" height="24" viewBox="0 0 24 24" width="24"><path d="M0 0h24v24H0z" fill="none"/><path d="M20 2H4c-1.1 0-1.99.9-1.99 2L2 22l4-4h14c1.1 0 2-.9 2-2V4c0-1.1-.9-2-2-2zM5 14l3.5-4.5 2.5 3.01L14.5 8l4.5 6H5z"/></svg>

<svg width="24" height="24" viewBox="0 0 24 24" fill="none" xmlns="http://www.w3.org/2000/svg">
<g clip-path="url(#clip0_147_5968)">
<path d="M20 2H4C2.9 2 2.01 2.9 2.01 4L2 22L6 18H20C21.1 18 22 17.1 22 16V4C22 2.9 21.1 2 20 2ZM5 14L8.5 9.5L11 12.51L14.5 8L19 14H5Z" fill="#323232"/>
</g>
<defs>
<clipPath id="clip0_147_5968">
<rect width="24" height="24" fill="white"/>
</clipPath>
</defs>
</svg>
